X: 23182
T: Le Reel Du Nord
R: reel
M: 4/4
K: Bminor
|:FBBB FBBB|FBdB c4|FBBB FBBB|fedc B4|
FBBB FBBB|FBdB c4|FBBB FBBB|fedc B4:|
K: Dmaj
|:Acec Acec|dcdf a4|Acec Acec|dead A4|
Acec Acec|dcdf a4|Acec Acec|dfaf d4:|

